X: 1
T: Thunderhead Jig
T: Jig Brest St Marc
C: Grey Larsen
Z: Nigel Gatherer
F: https://www.youtube.com/watch?v=Mb21k-Vuv6Q
M: 6/8
L: 1/8
K: Bm
B3 fBB | eBB dBA | B3 fgf | edB ABd |\
B3 fBB | eBB def | gfe fed | edB ABd :|
|:\
afd edB | ABd c3 | Bcc Bcc | dcB c3 |\
afd edB | ABd c3 | BdB cAa | gec d3 :|
